img/school/self-service/2.svg

<svg width="95" height="99" viewBox="0 0 95 99" fill="none" xmlns="http://www.w3.org/2000/svg">
<path d="M43.7999 80.2773H28.3799" stroke="#009245" stroke-width="2" stroke-miterlimit="10"/>
<path d="M18.4799 74.7776C17.9571 73.5966 17.688 72.3191 17.69 71.0276V10.9375C17.69 8.48425 18.6645 6.13156 20.3992 4.39685C22.134 2.66214 24.4867 1.6875 26.94 1.6875H60.6599C63.1141 1.6875 65.4679 2.66182 67.2042 4.39624C68.9405 6.13066 69.9173 8.48333 69.9199 10.9375V69.9375" stroke="#009245" stroke-width="2" stroke-miterlimit="10"/>
<path d="M44.4102 50.2383C52.5564 50.2383 59.1602 43.6345 59.1602 35.4883C59.1602 27.3421 52.5564 20.7383 44.4102 20.7383C36.264 20.7383 29.6602 27.3421 29.6602 35.4883C29.6602 43.6345 36.264 50.2383 44.4102 50.2383Z" stroke="#009245" stroke-width="2" stroke-miterlimit="10"/>
<path d="M37.5303 8.31836H50.1503" stroke="#009245" stroke-width="2" stroke-miterlimit="10" stroke-linecap="round"/>
<path d="M32.94 9.00891C33.3211 9.00891 33.63 8.69992 33.63 8.31885C33.63 7.93777 33.3211 7.62891 32.94 7.62891C32.5589 7.62891 32.25 7.93777 32.25 8.31885C32.25 8.69992 32.5589 9.00891 32.94 9.00891Z" stroke="#009245" stroke-width="2" stroke-miterlimit="10" stroke-linecap="round"/>
<path d="M39.2997 41.4281V28.0481C39.2997 28.0481 43.4198 27.9681 44.7798 28.1381C45.2056 28.1444 45.6259 28.2359 46.0158 28.4073C46.4057 28.5786 46.7574 28.8263 47.05 29.1358C47.3427 29.4452 47.5704 29.81 47.7198 30.2089C47.8692 30.6077 47.9371 31.0325 47.9197 31.458C47.9197 33.958 46.2097 34.848 44.4197 34.958C43.4197 35.018 40.5898 34.8981 40.5898 34.8981H37.7197" stroke="#009245" stroke-width="2" stroke-miterlimit="10"/>
<path d="M37.7598 38.2773H46.6298" stroke="#009245" stroke-width="2" stroke-miterlimit="10"/>
<path d="M6.37012 47.1887V19.4688" stroke="#009245" stroke-width="2" stroke-miterlimit="10" stroke-linecap="round"/>
<path d="M1.8501 23.3589L6.33014 18.8789L10.7601 23.3188" stroke="#009245" stroke-width="2" stroke-miterlimit="10" stroke-linecap="round"/>
<path d="M81.3203 47.1887V19.4688" stroke="#009245" stroke-width="2" stroke-miterlimit="10" stroke-linecap="round"/>
<path d="M76.79 23.3589L81.2701 18.8789L85.7101 23.3188" stroke="#009245" stroke-width="2" stroke-miterlimit="10" stroke-linecap="round"/>
<path d="M81.2499 53.8076C81.6973 53.8076 82.0599 53.4449 82.0599 52.9976C82.0599 52.5502 81.6973 52.1875 81.2499 52.1875C80.8026 52.1875 80.4399 52.5502 80.4399 52.9976C80.4399 53.4449 80.8026 53.8076 81.2499 53.8076Z" stroke="#009245" stroke-width="2" stroke-miterlimit="10" stroke-linecap="round"/>
<path d="M6.36998 96.7573C6.36998 96.7573 6.29998 73.3073 6.36998 65.3573C7.48998 59.7873 15.15 44.4073 15.15 44.4073L17.61 41.9473" stroke="#009245" stroke-width="2" stroke-miterlimit="10" stroke-linecap="round"/>
<path d="M16.5498 77.2385L26.4398 60.6285C27.1353 59.6155 28.1921 58.9071 29.3934 58.6487C30.5946 58.3902 31.8493 58.6012 32.8998 59.2385C37.3098 61.7985 34.6798 65.3585 34.6798 65.3585L27.5798 78.3585L32.3298 86.8485L32.4598 96.7385" stroke="#009245" stroke-width="2" stroke-miterlimit="10" stroke-linecap="round"/>
<path d="M47.4699 66.8184H40.1299C38.5173 66.8184 37.21 68.1257 37.21 69.7384V70.0784C37.21 71.691 38.5173 72.9984 40.1299 72.9984H47.4699C49.0826 72.9984 50.39 71.691 50.39 70.0784V69.7384C50.39 68.1257 49.0826 66.8184 47.4699 66.8184Z" stroke="#009245" stroke-width="2" stroke-miterlimit="10"/>
<path d="M50.3898 97.1984L43.8098 86.1984C43.3298 84.6384 42.0598 82.1984 44.7298 79.7384C47.0298 77.6084 49.8498 78.8284 51.1898 79.7384L55.3698 86.0784V55.7784C55.5598 53.8384 55.4998 50.6484 60.4398 50.6484C63.8698 50.6484 64.9398 53.8384 64.9398 55.7184L64.8198 81.4084L66.4598 72.4084C66.7798 70.5084 69.5998 69.8084 70.8898 69.9584C71.6834 70.1088 72.4193 70.4778 73.0147 71.0237C73.61 71.5696 74.0413 72.2708 74.2598 73.0485L74.5997 82.2084L75.7798 74.5084C76.1421 73.5954 76.7945 72.8267 77.6365 72.3208C78.4785 71.8149 79.4635 71.5996 80.4398 71.7084C82.0598 71.9084 84.0798 73.6084 84.1498 74.8184L84.8698 82.0284L85.6698 77.6685C86.3998 73.9585 88.1897 73.6684 89.5997 73.6084C90.1554 73.5528 90.7165 73.618 91.2445 73.7997C91.7725 73.9813 92.2549 74.2751 92.6586 74.6608C93.0624 75.0465 93.378 75.515 93.5836 76.0342C93.7892 76.5533 93.8799 77.1109 93.8497 77.6685V97.2484" stroke="#009245" stroke-width="2" stroke-linecap="round" stroke-linejoin="round"/>
</svg>

<svg width="95" height="99" fill="none" xmlns="http://www.w3.org/2000/svg"><path d="M43.8 80.277H28.38m-9.9-5.499a9.229 9.229 0 01-.79-3.75v-60.09a9.25 9.25 0 019.25-9.25h33.72a9.26 9.26 0 019.26 9.25v59" stroke="#009245" stroke-width="2" stroke-miterlimit="10"/><path d="M44.41 50.238c8.146 0 14.75-6.603 14.75-14.75 0-8.146-6.604-14.75-14.75-14.75s-14.75 6.604-14.75 14.75c0 8.147 6.604 14.75 14.75 14.75z" stroke="#009245" stroke-width="2" stroke-miterlimit="10"/><path d="M37.53 8.318h12.62m-17.21.691a.69.69 0 100-1.38.69.69 0 000 1.38z" stroke="#009245" stroke-width="2" stroke-miterlimit="10" stroke-linecap="round"/><path d="M39.3 41.428v-13.38s4.12-.08 5.48.09a3.189 3.189 0 013.14 3.32c0 2.5-1.71 3.39-3.5 3.5-1 .06-3.83-.06-3.83-.06h-2.87m.04 3.379h8.87" stroke="#009245" stroke-width="2" stroke-miterlimit="10"/><path d="M6.37 47.189v-27.72m-4.52 3.89l4.48-4.48 4.43 4.44m70.56 23.87v-27.72m-4.53 3.89l4.48-4.48 4.44 4.44m-4.46 30.489a.81.81 0 100-1.62.81.81 0 000 1.62zM6.37 96.757s-.07-23.45 0-31.4c1.12-5.57 8.78-20.95 8.78-20.95l2.46-2.46m-1.06 35.292l9.89-16.61a4.81 4.81 0 016.46-1.39c4.41 2.56 1.78 6.12 1.78 6.12l-7.1 13 4.75 8.49.13 9.89" stroke="#009245" stroke-width="2" stroke-miterlimit="10" stroke-linecap="round"/><path d="M47.47 66.818h-7.34a2.92 2.92 0 00-2.92 2.92v.34a2.92 2.92 0 002.92 2.92h7.34a2.92 2.92 0 002.92-2.92v-.34a2.92 2.92 0 00-2.92-2.92z" stroke="#009245" stroke-width="2" stroke-miterlimit="10"/><path d="M50.39 97.198l-6.58-11c-.48-1.56-1.75-4 .92-6.46 2.3-2.13 5.12-.91 6.46 0l4.18 6.34v-30.3c.19-1.94.13-5.13 5.07-5.13 3.43 0 4.5 3.19 4.5 5.07l-.12 25.69 1.64-9c.32-1.9 3.14-2.6 4.43-2.45a4.34 4.34 0 013.37 3.09l.34 9.16 1.18-7.7a4.48 4.48 0 014.66-2.8c1.62.2 3.64 1.9 3.71 3.11l.72 7.21.8-4.36c.73-3.71 2.52-4 3.93-4.06a3.87 3.87 0 014.25 4.06v19.58" stroke="#009245" stroke-width="2" stroke-linecap="round" stroke-linejoin="round"/></svg>
